svg/halloween.svg

<svg xmlns="http://www.w3.org/2000/svg" viewBox="0 0 24 24"><path d="M6.5 6c.97 0 1.87.5 2.61 1.38.55-.59 1.2-1.02 1.89-1.23V4a2 2 0 0 1 2-2h2v2h-2v2.15c.69.21 1.34.64 1.89 1.23C15.63 6.5 16.53 6 17.5 6 20 6 22 9.36 22 13.5S20 21 17.5 21c-.97 0-1.87-.5-2.61-1.38C14.08 20.5 13.08 21 12 21s-2.08-.5-2.89-1.38C8.37 20.5 7.47 21 6.5 21 4 21 2 17.64 2 13.5S4 6 6.5 6M9 10l-1.25 2.25h2.5zm6 0-1.25 2.25h2.5zm-7 7h2l1-1 1 1h2l1-1 1 1 1.5-3-3.58.62L13 16l-1-1h-2l-1 1-1-1-2-1z"/></svg>

<?xml version="1.0" encoding="UTF-8"?><!DOCTYPE svg PUBLIC "-//W3C//DTD SVG 1.1//EN" "http://www.w3.org/Graphics/SVG/1.1/DTD/svg11.dtd"><svg xmlns="http://www.w3.org/2000/svg" xmlns:xlink="http://www.w3.org/1999/xlink" version="1.1" id="mdi-halloween" width="24" height="24" viewBox="0 0 24 24"><path d="M6.5,6C7.47,6 8.37,6.5 9.11,7.38C9.66,6.79 10.31,6.36 11,6.15V4A2,2 0 0,1 13,2H15V4H13V6.15C13.69,6.36 14.34,6.79 14.89,7.38C15.63,6.5 16.53,6 17.5,6C20,6 22,9.36 22,13.5C22,17.64 20,21 17.5,21C16.53,21 15.63,20.5 14.89,19.62C14.08,20.5 13.08,21 12,21C10.92,21 9.92,20.5 9.11,19.62C8.37,20.5 7.47,21 6.5,21C4,21 2,17.64 2,13.5C2,9.36 4,6 6.5,6M9,10L7.75,12.25H10.25L9,10M15,10L13.75,12.25H16.25L15,10M8,17H10L11,16L12,17H14L15,16L16,17L17.5,14L13.92,14.62L13,16L12,15H10L9,16L8,15L6,14L8,17Z" /></svg>
